svg/instagram-logo.svg

<svg width="22" height="22" viewBox="0 0 22 22" fill="none" xmlns="http://www.w3.org/2000/svg">
<g clip-path="url(#clip0_119_5963)">
<path d="M21.9784 6.46806C21.9269 5.29912 21.7378 4.49548 21.467 3.79911C21.1877 3.05994 20.7579 2.39816 20.1948 1.84802C19.6447 1.28931 18.9786 0.855178 18.248 0.580191C17.5476 0.309402 16.7481 0.12037 15.5792 0.0688306C14.4015 0.0129267 14.0276 0 11.0407 0C8.05381 0 7.67994 0.0129267 6.50663 0.0644657C5.33769 0.116005 4.53405 0.305205 3.83785 0.575827C3.09851 0.855178 2.43673 1.28495 1.88659 1.84802C1.32789 2.39816 0.89392 3.0643 0.618765 3.79492C0.347976 4.49548 0.158944 5.29475 0.107405 6.4637C0.0515009 7.64137 0.0385742 8.01524 0.0385742 11.0021C0.0385742 13.9891 0.0515009 14.3629 0.10304 15.5362C0.154579 16.7052 0.343779 17.5088 0.614568 18.2052C0.89392 18.9444 1.32789 19.6061 1.88659 20.1563C2.43673 20.715 3.10288 21.1491 3.83349 21.4241C4.53405 21.6949 5.33332 21.8839 6.50244 21.9355C7.67558 21.9872 8.04961 21.9999 11.0365 21.9999C14.0234 21.9999 14.3973 21.9872 15.5706 21.9355C16.7396 21.8839 17.5432 21.6949 18.2394 21.4241C19.7179 20.8525 20.8868 19.6835 21.4585 18.2052C21.7291 17.5046 21.9183 16.7052 21.9698 15.5362C22.0214 14.3629 22.0343 13.9891 22.0343 11.0021C22.0343 8.01524 22.0299 7.64137 21.9784 6.46806ZM19.9973 15.4503C19.9499 16.5247 19.7694 17.1049 19.619 17.4917C19.2494 18.4501 18.4887 19.2108 17.5303 19.5805C17.1435 19.7309 16.5591 19.9113 15.4889 19.9585C14.3285 20.0102 13.9805 20.023 11.0451 20.023C8.10971 20.023 7.75733 20.0102 6.60115 19.9585C5.52672 19.9113 4.94653 19.7309 4.55973 19.5805C4.08279 19.4042 3.64865 19.1248 3.29627 18.7595C2.93097 18.4028 2.65162 17.973 2.47534 17.4961C2.32492 17.1093 2.14445 16.5247 2.09728 15.4546C2.04557 14.2943 2.03281 13.9461 2.03281 11.0107C2.03281 8.07534 2.04557 7.72296 2.09728 6.56694C2.14445 5.49251 2.32492 4.91232 2.47534 4.52553C2.65162 4.04841 2.93097 3.61444 3.30064 3.2619C3.65722 2.89659 4.08699 2.61724 4.5641 2.44114C4.95089 2.29072 5.53545 2.11024 6.60551 2.0629C7.7659 2.01136 8.11408 1.99844 11.0493 1.99844C13.989 1.99844 14.337 2.01136 15.4932 2.0629C16.5676 2.11024 17.1478 2.29072 17.5346 2.44114C18.0116 2.61724 18.4457 2.89659 18.7981 3.2619C19.1634 3.61864 19.4427 4.04841 19.619 4.52553C19.7694 4.91232 19.9499 5.49671 19.9973 6.56694C20.0488 7.72732 20.0617 8.07534 20.0617 11.0107C20.0617 13.9461 20.0488 14.2899 19.9973 15.4503Z" fill="#FDFEFF"/>
<path d="M11.0408 5.35059C7.92074 5.35059 5.38928 7.88187 5.38928 11.0021C5.38928 14.1223 7.92074 16.6536 11.0408 16.6536C14.161 16.6536 16.6923 14.1223 16.6923 11.0021C16.6923 7.88187 14.161 5.35059 11.0408 5.35059ZM11.0408 14.6681C9.01665 14.6681 7.37479 13.0264 7.37479 11.0021C7.37479 8.97779 9.01665 7.3361 11.0408 7.3361C13.0651 7.3361 14.7068 8.97779 14.7068 11.0021C14.7068 13.0264 13.0651 14.6681 11.0408 14.6681Z" fill="#FDFEFF"/>
<path d="M18.2352 5.12747C18.2352 5.85607 17.6444 6.44684 16.9157 6.44684C16.1871 6.44684 15.5963 5.85607 15.5963 5.12747C15.5963 4.39871 16.1871 3.80811 16.9157 3.80811C17.6444 3.80811 18.2352 4.39871 18.2352 5.12747Z" fill="#FDFEFF"/>
</g>
<defs>
<clipPath id="clip0_119_5963">
<rect width="22" height="22" fill="white"/>
</clipPath>
</defs>
</svg>

<svg xmlns="http://www.w3.org/2000/svg" width="22" height="22" fill="none" viewBox="0 0 22 22"><g fill="#FDFEFF" clip-path="url(#a)"><path d="M21.98 6.47a8.04 8.04 0 0 0-.51-2.67c-.28-.74-.71-1.4-1.28-1.95-.55-.56-1.21-1-1.94-1.27-.7-.27-1.5-.46-2.67-.51A75.07 75.07 0 0 0 11.04 0C8.05 0 7.68.01 6.51.06a8.04 8.04 0 0 0-2.67.52c-.74.28-1.4.7-1.95 1.27-.56.55-1 1.21-1.27 1.94C.35 4.5.16 5.3.1 6.46A75.07 75.07 0 0 0 .04 11c0 2.99.01 3.36.06 4.54.05 1.17.24 1.97.51 2.67.28.73.72 1.4 1.28 1.95.55.55 1.21.99 1.94 1.26.7.27 1.5.46 2.67.52 1.18.05 1.55.06 4.54.06 2.98 0 3.36-.01 4.53-.06a8.04 8.04 0 0 0 2.67-.52 5.63 5.63 0 0 0 3.22-3.21c.27-.7.46-1.5.51-2.67.05-1.18.06-1.55.06-4.54 0-2.98 0-3.36-.05-4.53ZM20 15.45a6.03 6.03 0 0 1-.38 2.04 3.65 3.65 0 0 1-2.09 2.1c-.39.14-.97.32-2.04.37-1.16.05-1.51.06-4.44.06-2.94 0-3.3-.01-4.45-.06a6.03 6.03 0 0 1-2.04-.38 3.39 3.39 0 0 1-1.26-.82 3.42 3.42 0 0 1-.82-1.26 6.05 6.05 0 0 1-.38-2.05 77.4 77.4 0 0 1-.07-4.44c0-2.93.02-3.29.07-4.44.04-1.08.22-1.66.38-2.04.17-.48.45-.92.82-1.27.36-.36.79-.64 1.26-.82.4-.15.98-.33 2.05-.38C7.77 2.01 8.1 2 11.05 2c2.94 0 3.29.01 4.44.06 1.08.05 1.66.23 2.04.38.48.18.92.46 1.27.82.36.36.64.79.82 1.27.15.38.33.97.38 2.04.05 1.16.06 1.5.06 4.44 0 2.94-.01 3.28-.06 4.44Z"/><path d="M11.04 5.35a5.65 5.65 0 1 0 0 11.3 5.65 5.65 0 0 0 0-11.3Zm0 9.32a3.67 3.67 0 1 1 0-7.34 3.67 3.67 0 0 1 0 7.34ZM18.24 5.13a1.32 1.32 0 1 1-2.64 0 1.32 1.32 0 0 1 2.64 0Z"/></g><defs><clipPath id="a"><path fill="#fff" d="M0 0h22v22H0z"/></clipPath></defs></svg>
